X:512
T:Polska # 512
T: efter fadern
Q: 110
M:3/4
L:1/16
K: A
(ae)ce (ae)ce a4| (fd)AF (DF)Ad g4|(ec)AE (CE)Ac e4| (dc)BA (GA)Bc d4|
(df)dB (ce)cA B2c2|(dc)BG A2E2 C2A,2| (ae)ce (ae)ce a4|  (fd)AF (DF)Ad g4|
(ec)AE (CE)Ac e4| (dc)BA (GA)Bc d4| (df)dB (ce)cA B2c2| (dc)BG G2A2 A4:|
|:A,3C ECEC ECEC| A,3D FDFD FDFD| B,3A GB,GB, GB,GB,|
A,2A,E AEAE A3E| A,3C ECEC ECEC| A,3D FDFD FDFD|
B,3A GB,GB, GB,GB,| AECE A8:|

